X:1
T:Buddy Bolden Blues
T:Buddy Bolden Blues
T:Jelly Roll Morton
C:Jelly Roll Morton
Z:All Rights Reserved
L:1/8
M:4/4
K:Eb
V:1 bass 
%%MIDI program 57
%%MIDI control 7 100
%%MIDI control 10 64
V:1
 E, |"^E" B, B,3"^Edim" =A,2 _A,"^B"A, |"^E" G, G,2 F,-"^E7" F,3 E, | %3
"^A" F, E,2 E,"Adim" ^F, E,3 |"^E" G,^F,G,E,-"^E7" E,3 E, |"^A" (3F,F,E,- E,E,"Adim" ^F, E,3 | %6
"^E" G,^F,G,B,-"C7" B,3 D, |"^B" F,"^G7" ^F,3"C7" G,2"F7" =A,B,- |"^B7" B,6 z B,, | %9
"^E" B, B,2 =A,-"^EDim" A,2"^B7" _A,A, |"^E" G, G,2 F,-"^E7" F,4 | %11
"^A" F,F,F,E,"Adim" (3_G,G,F, E,E, |"^E" G,2 G,E,-"^E7" E,4 | %13
"^A" F,F,F,E,"Adim" (3_G,G,F, E,C, |"^E" G,2 G,B,-"C7" B,2 G,2 | %15
"F7" E, C,3"^B7" ^F,F,/E,/ (3G,=F,E,- |"^E" E,6 z2 |] %17

